X:63
T:Karen Fraser's Valentine's Day Waltz
M:3/4
L:1/8
C:© Paul Gitlitz 2002
R:Waltz
B:Hunters and Gatherers
N:The tune I wrote for my wife while we were still courting.
D:"To Have and To Hold" available @ www.glitchless.net
K:F
"F"f3a fd|"Am"e2c2A2|"F"(fa fa f)d|"Am"e2c2A2|!
"Bb"Bd B3G|"F"Ac A3F|1"Bb"B3c "F"BA|"C"G3c de:|2"F"cd cB "C"AG|"F"F4-FE|!
|"F"F(c =Bc) (dc)|"C"G(c =Bc) (dc)|"F"Ac eg ((3fga)|"Bb"b2a2g2|!
"F"af d2f2|"C"ge c2e2|"F"fg a2"Bb"b2|"C"g3d  cA|!
"F"F(c =Bc) (dc)|"C"G(c =Bc) (dc)|"F"Ac eg (3fga)|"Bb"b3a"C"g2|!
"F"a3f df|"C"g3e "F"cA|"Am"fa g2 "C"e2|"F"f6|]
